public/avatar/body/41.svg

<svg xmlns:xlink="http://www.w3.org/1999/xlink" height="82" width="84.85" xmlns="http://www.w3.org/2000/svg"><g transform="translate(37.4 42.25)"><use height="37.95" transform="translate(-12 -17.45)" width="32.1" xlink:href="#a"/><use height="38.95" transform="translate(-12.45 -17.95)" width="33.05" xlink:href="#b"/><use height="8.85" transform="translate(-4.35 4.1)" width="18.05" xlink:href="#c"/></g><defs><path d="M2.7-17.35q2.85-.4 5.5.7 4.75 2.05 7.15 6.6Q17.5-5.9 18.9-1.3q1.2 3.85 1.2 7.8v1.35L20 8h.1l-.05.2q-.15 1.95-.8 3.65l-.8 1.6-2.6 2.85q-3.8 3.2-8.75 4.05-5 .6-9.65-.95-4.65-1.6-7.1-5.5l-.8-1.35-1.25-3.45-.3-3.05.1-1.55q.35-3.95 1.95-8.25Q-8.15-8.7-5-12.4q3.1-3.75 7.7-4.95" fill="url(#d)" fill-rule="evenodd" transform="translate(12 17.45)" id="a"/><path d="M27.35 7.4Q24.95 2.85 20.2.8 17.55-.3 14.7.1 10.1 1.3 7 5.05q-3.15 3.7-4.95 8.65-1.8 4.9-2 9.3-.25 4.4 2.3 8.35 2.45 3.9 7.1 5.5 4.65 1.55 9.65.95 4.95-.85 8.75-4.05 3.85-3.15 4.2-8.1.3-4.8-1.15-9.5-1.4-4.6-3.55-8.75Z" fill="none" stroke="#000" stroke-linecap="round" stroke-linejoin="round" transform="translate(.45 .5)" id="e"/><path d="M15.7 4.85h1.6l.5.05.05.2v.2l-.1.2-.85 1.8-.1.25v.1l.05.15.15.05.3-.1.15-.25.05-.1.05-.05.05-.15h.1l.25.1.1.35-.05.25-.05.25-.25.45-.3.15h-.1l-.1-.05-.15-.05h-1.9l-.3-.05-.15-.25V8.3l.05-.1.05-.1.05-.15.1-.1.05-.1.75-1.45.15-.3.05-.2-.05-.1-.25-.05-.25.1-.15.2v.1l-.15.15-.15.1-.2-.15-.1-.25v-.25l.05-.2.2-.4.2-.3h.05l.05-.05.05.05h.05l.15.05h.1l.15.05m-1.75-2.3V3.7l-.05.55V5.9l.05.65q.05.3.25.6v.05l.05.05.15.2.05.25q0 .55-.55.85l-1.7.3-1.6-.3q-.6-.25-.6-.7l.05-.35.15-.25.05-.1.05-.1.2-.75.05-1.6-.15-1.75q-.2-.5-.6-.5-.45 0-.6.35-.2.3-.2 1.1v1.75l.05.95.25.55v.1l.05.05v.05l.1.2.05.25q0 .5-.55.75l-1.8.3L5.4 8.6q-.5-.15-.5-.7l.05-.3.15-.2.1-.05.05-.1.25-.45.1-.95V5.1l.05-.4v-.4L5.45 3l-.55-.4q-.45 0-.6.55-.15.55-.15 2.25v.75l.1.55.1.4.1.2.05.2.05.15v.15q0 .5-.6.75l-1.75.3L.55 8.6Q0 8.4 0 7.95l.05-.15v-.1l.1-.15.25-.3q.3-.3.4-.95L.9 4 .75 2.8.5 2.3l-.05-.05-.1-.1L.2 2l-.05-.3.1-.4.4-.4.7-.25 1-.4.75-.2.7-.05q.2 0 .3.15l.1.55V1l.05.4.15.15.3-.25.5-.55L6 .2 7.05 0l1.1.25.65.8.15.25.1.1.05.05h.05l.25-.25.55-.5.8-.5.95-.2q1.05 0 1.65.65.6.65.6 1.9" fill="#fff" fill-rule="evenodd" id="f"/><use height="38.95" width="33.05" xlink:href="#e" id="b"/><use height="8.85" width="18.05" xlink:href="#f" id="c"/><radialGradient cx="0" cy="0" gradientTransform="matrix(.0002 -.035 .0246 .0001 4 2.75)" gradientUnits="userSpaceOnUse" id="d" r="819.2" spreadMethod="pad"><stop offset=".451" stop-color="#fd0326"/><stop offset="1" stop-color="#aa091b"/></radialGradient></defs></svg>

<?xml version="1.0" encoding="UTF-8" standalone="no"?>
<svg xmlns:xlink="http://www.w3.org/1999/xlink" height="82.0px" width="84.85px" xmlns="http://www.w3.org/2000/svg">
  <g transform="matrix(1.0, 0.0, 0.0, 1.0, 37.4, 42.25)">
    <use height="37.95" transform="matrix(1.0, 0.0, 0.0, 1.0, -12.0, -17.45)" width="32.1" xlink:href="#shape0"/>
    <use height="38.95" transform="matrix(1.0, 0.0, 0.0, 1.0, -12.45, -17.95)" width="33.05" xlink:href="#sprite0"/>
    <use height="8.85" transform="matrix(1.0, 0.0, 0.0, 1.0, -4.35, 4.1)" width="18.05" xlink:href="#sprite1"/>
  </g>
  <defs>
    <g id="shape0" transform="matrix(1.0, 0.0, 0.0, 1.0, 12.0, 17.45)">
      <path d="M2.7 -17.35 Q5.55 -17.75 8.2 -16.65 12.95 -14.6 15.35 -10.05 17.5 -5.9 18.9 -1.3 20.1 2.55 20.1 6.5 L20.1 7.85 20.0 8.0 20.1 8.0 20.05 8.2 Q19.9 10.15 19.25 11.85 L18.45 13.45 15.85 16.3 Q12.05 19.5 7.1 20.35 2.1 20.95 -2.55 19.4 -7.2 17.8 -9.65 13.9 L-10.45 12.55 -11.7 9.1 -12.0 6.05 -11.9 4.5 Q-11.55 0.55 -9.95 -3.75 -8.15 -8.7 -5.0 -12.4 -1.9 -16.15 2.7 -17.35" fill="url(#gradient0)" fill-rule="evenodd" stroke="none"/>
    </g>
    <radialGradient cx="0" cy="0" gradientTransform="matrix(2.0E-4, -0.035, 0.0246, 1.0E-4, 4.0, 2.75)" gradientUnits="userSpaceOnUse" id="gradient0" r="819.2" spreadMethod="pad">
      <stop offset="0.45098039215686275" stop-color="#fd0326"/>
      <stop offset="1.0" stop-color="#aa091b"/>
    </radialGradient>
    <g id="sprite0" transform="matrix(1.0, 0.0, 0.0, 1.0, 0.45, 0.5)">
      <use height="38.95" transform="matrix(1.0, 0.0, 0.0, 1.0, -0.45, -0.5)" width="33.05" xlink:href="#shape1"/>
    </g>
    <g id="shape1" transform="matrix(1.0, 0.0, 0.0, 1.0, 0.45, 0.5)">
      <path d="M27.35 7.4 Q24.95 2.85 20.2 0.8 17.55 -0.3 14.7 0.1 10.1 1.3 7.0 5.05 3.85 8.75 2.05 13.7 0.25 18.6 0.05 23.0 -0.2 27.4 2.35 31.35 4.8 35.25 9.45 36.85 14.1 38.4 19.1 37.8 24.05 36.95 27.85 33.75 31.7 30.6 32.05 25.65 32.35 20.85 30.9 16.15 29.5 11.55 27.35 7.4 Z" fill="none" stroke="#000000" stroke-linecap="round" stroke-linejoin="round" stroke-width="1.0"/>
    </g>
    <g id="sprite1" transform="matrix(1.0, 0.0, 0.0, 1.0, 0.0, 0.0)">
      <use height="8.85" transform="matrix(1.0, 0.0, 0.0, 1.0, 0.0, 0.0)" width="18.05" xlink:href="#shape2"/>
    </g>
    <g id="shape2" transform="matrix(1.0, 0.0, 0.0, 1.0, 0.0, 0.0)">
      <path d="M15.7 4.85 L15.85 4.85 17.3 4.85 17.8 4.9 17.85 5.1 17.85 5.3 17.75 5.5 16.9 7.3 16.8 7.55 16.8 7.65 16.85 7.8 17.0 7.85 17.3 7.75 17.45 7.5 17.5 7.4 17.55 7.35 17.6 7.2 17.7 7.2 17.95 7.3 18.05 7.65 18.0 7.9 17.95 8.15 17.7 8.6 17.4 8.75 17.3 8.75 17.2 8.7 17.05 8.65 16.9 8.65 15.15 8.65 14.85 8.6 14.7 8.35 14.7 8.3 14.75 8.2 14.8 8.1 14.85 7.95 14.95 7.85 15.0 7.75 15.75 6.3 15.9 6.0 15.95 5.8 15.9 5.7 15.65 5.65 15.4 5.75 15.25 5.95 15.25 6.05 15.1 6.2 14.95 6.3 14.75 6.15 14.65 5.9 14.65 5.65 14.7 5.45 14.9 5.05 15.1 4.75 15.15 4.75 15.2 4.7 15.25 4.75 15.3 4.75 15.45 4.8 15.55 4.8 15.7 4.85 M13.95 2.55 L13.95 3.1 13.95 3.7 13.9 4.25 13.9 4.85 13.9 5.5 13.9 5.9 13.95 6.55 Q14.0 6.85 14.2 7.15 L14.2 7.2 14.25 7.25 14.4 7.45 14.45 7.7 Q14.45 8.25 13.9 8.55 L12.2 8.85 10.6 8.55 Q10.0 8.3 10.0 7.85 L10.05 7.5 10.2 7.25 10.25 7.15 10.3 7.05 10.5 6.3 10.55 4.7 10.4 2.95 Q10.2 2.45 9.8 2.45 9.35 2.45 9.2 2.8 9.0 3.1 9.0 3.9 L9.0 5.65 9.05 6.6 9.3 7.15 9.3 7.25 9.35 7.3 9.35 7.35 9.45 7.55 9.5 7.8 Q9.5 8.3 8.95 8.55 L7.15 8.85 5.4 8.6 Q4.9 8.45 4.9 7.9 L4.95 7.6 5.1 7.4 5.2 7.35 5.25 7.25 5.5 6.8 5.6 5.85 5.6 5.5 5.6 5.1 5.65 4.7 5.65 4.3 5.45 3.0 4.9 2.6 Q4.45 2.6 4.3 3.15 4.15 3.7 4.15 5.4 L4.15 6.15 4.25 6.7 4.35 7.1 4.45 7.3 4.5 7.5 4.55 7.65 4.55 7.8 Q4.55 8.3 3.95 8.55 L2.2 8.85 0.55 8.6 Q0.0 8.4 0.0 7.95 L0.05 7.8 0.05 7.7 0.15 7.55 0.4 7.25 Q0.7 6.95 0.8 6.3 L0.9 4.0 0.75 2.8 0.5 2.3 0.45 2.25 0.35 2.15 0.2 2.0 0.15 1.7 0.25 1.3 0.65 0.9 1.35 0.65 2.35 0.25 3.1 0.05 3.8 0.0 Q4.0 0.0 4.1 0.15 L4.2 0.7 4.2 0.75 4.2 0.85 4.2 0.95 4.2 1.0 4.25 1.4 4.4 1.55 4.7 1.3 5.2 0.75 6.0 0.2 7.05 0.0 8.15 0.25 8.8 1.05 8.95 1.3 9.05 1.4 9.1 1.45 9.15 1.45 9.4 1.2 9.95 0.7 10.75 0.2 11.7 0.0 Q12.75 0.0 13.35 0.65 13.95 1.3 13.95 2.55" fill="#ffffff" fill-rule="evenodd" stroke="none"/>
    </g>
  </defs>
</svg>
